X: 08041
T: FOLEYS' JIG
C: Bob McQuillen 31 Aug 90
B: Bob's Note Book 8 #41
%R: jig
Z: 2021 John Chambers <jc:trillian.mit.edu>
M: 6/8
L: 1/8
K: D	% and A
eg \
| fed Bcd | AFD EDB, | A,DF Adf | afd ede |\
| fdf edc | Bcd AFA | agf ede | fdd d :|
K: A
|: cd \
| e2e efe | cAF EAB | cAc eaf | ecA Bcd |\
| ece fdf | efg aec |1 def edc | BAG A :|2 def efg | aAA A |]
%%begintext align
%% You'll never
%% meet nicer people or more enthusiastic
%% dancers than John & Louise Foley of
%% Trumbull, CT. I am so glad this jig came
%% along with their name on it. They deserve it!
%%endtext

%%sep 1 1 500

%%sep 1 1 500

